src/food-drink/food-prepared/1F9C0.svg

<svg id="emoji" viewBox="0 0 72 72" xmlns="http://www.w3.org/2000/svg">
  <g id="grid">
    <path fill="#b3b3b3" d="M68,4V68H4V4H68m4-4H0V72H72V0Z"/>
    <path fill="none" stroke="#00a5ff" stroke-miterlimit="10" stroke-width="0.1" d="M12.923,10.9583H59.0769A1.9231,1.9231,0,0,1,61,12.8814V59.0352a1.9231,1.9231,0,0,1-1.9231,1.9231H12.9231A1.9231,1.9231,0,0,1,11,59.0352V12.8813A1.923,1.923,0,0,1,12.923,10.9583Z"/>
    <rect x="16" y="4" rx="2.2537" width="40" height="64" fill="none" stroke="#00a5ff" stroke-miterlimit="10" stroke-width="0.1"/>
    <rect x="16" y="4" rx="2.2537" width="40" height="64" transform="translate(72) rotate(90)" fill="none" stroke="#00a5ff" stroke-miterlimit="10" stroke-width="0.1"/>
    <circle cx="36" cy="36" r="29" fill="none" stroke="#00a5ff" stroke-miterlimit="10" stroke-width="0.1"/>
  </g>
  <g id="color">
    <path fill="#fcea2b" stroke="none" d="M57,11.9961c5.5225,0,10,4.4775,10,10v31c0,1.1045-0.8955,2-2,2H7c-1.1045,0-2-0.8955-2-2v-31 c0-1.1045,0.8955-2,2-2l13-2.0801L57,11.9961z"/>
    <circle cx="16" cy="43.9961" r="5" fill="#f1b31c" stroke="none"/>
    <circle cx="56" cy="29.9961" r="5" fill="#f1b31c" stroke="none"/>
    <circle cx="49" cy="44.9961" r="3" fill="#f1b31c" stroke="none"/>
    <circle cx="40" cy="31.9961" r="3" fill="#f1b31c" stroke="none"/>
    <circle cx="32" cy="40.9961" r="3" fill="#f1b31c" stroke="none"/>
    <circle cx="21" cy="28.9961" r="3" fill="#f1b31c" stroke="none"/>
  </g>
  <g id="hair"/>
  <g id="skin"/>
  <g id="skin-shadow"/>
  <g id="line">
    <path fill="none" stroke="#000000" stroke-linecap="round" stroke-linejoin="round" stroke-miterlimit="10" stroke-width="2" d="M67,21.9961v31c0,1.1045-0.8955,2-2,2H7c-1.1045,0-2-0.8955-2-2v-31c0-1.1045,0.8955-2,2-2l50-8"/>
    <path fill="none" stroke="#000000" stroke-linecap="round" stroke-linejoin="round" stroke-miterlimit="10" stroke-width="2" d="M57,11.9961c5.5225,0,10,4.4775,10,10"/>
    <circle cx="16" cy="43.9961" r="5" fill="none" stroke="#000000" stroke-linecap="round" stroke-linejoin="round" stroke-miterlimit="10" stroke-width="2"/>
    <circle cx="56" cy="29.9961" r="5" fill="none" stroke="#000000" stroke-linecap="round" stroke-linejoin="round" stroke-miterlimit="10" stroke-width="2"/>
    <circle cx="49" cy="44.9961" r="3" fill="none" stroke="#000000" stroke-linecap="round" stroke-linejoin="round" stroke-miterlimit="10" stroke-width="2"/>
    <circle cx="40" cy="31.9961" r="3" fill="none" stroke="#000000" stroke-linecap="round" stroke-linejoin="round" stroke-miterlimit="10" stroke-width="2"/>
    <circle cx="32" cy="40.9961" r="3" fill="none" stroke="#000000" stroke-linecap="round" stroke-linejoin="round" stroke-miterlimit="10" stroke-width="2"/>
    <circle cx="21" cy="28.9961" r="3" fill="none" stroke="#000000" stroke-linecap="round" stroke-linejoin="round" stroke-miterlimit="10" stroke-width="2"/>
  </g>
</svg>

<svg viewBox="0 0 72 72" xmlns="http://www.w3.org/2000/svg"><path fill="#b3b3b3" d="M68 4v64H4V4h64m4-4H0v72h72V0z"/><path fill="none" stroke="#00a5ff" stroke-miterlimit="10" stroke-width=".1" d="M12.923 10.958h46.154A1.923 1.923 0 0161 12.881v46.154a1.923 1.923 0 01-1.923 1.923H12.923A1.923 1.923 0 0111 59.035V12.881a1.923 1.923 0 011.923-1.923z"/><rect x="16" y="4" rx="2.254" width="40" height="64" fill="none" stroke="#00a5ff" stroke-miterlimit="10" stroke-width=".1"/><rect x="16" y="4" rx="2.254" width="40" height="64" transform="rotate(90 36 36)" fill="none" stroke="#00a5ff" stroke-miterlimit="10" stroke-width=".1"/><circle cx="36" cy="36" r="29" fill="none" stroke="#00a5ff" stroke-miterlimit="10" stroke-width=".1"/><g stroke-linecap="round" stroke-miterlimit="10" stroke-width="6" stroke="#fff" fill="none" stroke-linejoin="round"><path d="M67 21.996v31a2 2 0 01-2 2H7a2 2 0 01-2-2v-31a2 2 0 012-2l50-8m0 0c5.522 0 10 4.478 10 10"/><circle cx="16" cy="43.996" r="5"/><circle cx="56" cy="29.996" r="5"/><circle cx="49" cy="44.996" r="3"/><circle cx="40" cy="31.996" r="3"/><circle cx="32" cy="40.996" r="3"/><circle cx="21" cy="28.996" r="3"/></g><path fill="#fcea2b" d="M57 11.996c5.522 0 10 4.478 10 10v31a2 2 0 01-2 2H7a2 2 0 01-2-2v-31a2 2 0 012-2l13-2.08 37-5.92z"/><circle cx="16" cy="43.996" r="5" fill="#f1b31c"/><circle cx="56" cy="29.996" r="5" fill="#f1b31c"/><circle cx="49" cy="44.996" r="3" fill="#f1b31c"/><circle cx="40" cy="31.996" r="3" fill="#f1b31c"/><circle cx="32" cy="40.996" r="3" fill="#f1b31c"/><circle cx="21" cy="28.996" r="3" fill="#f1b31c"/><g fill="none" stroke="#000" stroke-linecap="round" stroke-linejoin="round" stroke-miterlimit="10" stroke-width="2"><path d="M67 21.996v31a2 2 0 01-2 2H7a2 2 0 01-2-2v-31a2 2 0 012-2l50-8m0 0c5.522 0 10 4.478 10 10"/><circle cx="16" cy="43.996" r="5"/><circle cx="56" cy="29.996" r="5"/><circle cx="49" cy="44.996" r="3"/><circle cx="40" cy="31.996" r="3"/><circle cx="32" cy="40.996" r="3"/><circle cx="21" cy="28.996" r="3"/></g></svg>
